X:59
T:A Drumeddie
C:"Irish"
S:Petrie's Third Collection of Strathspey Reels and Country Dances &c.
Z:Steve Wyrick <sjwyrick'at'gmail'dot'com>, 7/31/05
N:Petrie's Third Collection, page 23
L:1/8
M:6/8
R:Jig
K:D
"^Slowish"
d|dfd B2d|AFA A2B|ABA ABd|f2a gfe|(df)d B2d|AFA A2B|A2g fge|
d3 D2:|f|d2f a2f|b2g afd|d2g (f/g/a)f|g2e bge|d2g \{fg\}a2f|b2g a2g|fed ABd|
f2a gfe|[G2B2][GB] [G2B2]d|[F2A2][FA] [F2A2]B|ABA ABd|f2a gfe|[GB][GB][GB] [G2B2]d|[FA][FA][FA] [F2A2]B|A2g fge|d3 D2|]
